Komodo/actions/scalable/document-save-symbolic.svg

<?xml version="1.0" encoding="UTF-8" standalone="no"?>
<!-- Created with Inkscape (http://www.inkscape.org/) -->
<svg id="svg2" xmlns:rdf="http://www.w3.org/1999/02/22-rdf-syntax-ns#" xmlns="http://www.w3.org/2000/svg" height="16" width="16" version="1.0" xmlns:cc="http://creativecommons.org/ns#" xmlns:dc="http://purl.org/dc/elements/1.1/">
 <metadata id="metadata7">
  <rdf:RDF>
   <cc:Work rdf:about="">
    <dc:format>image/svg+xml</dc:format>
    <dc:type rdf:resource="http://purl.org/dc/dcmitype/StillImage"/>
   </cc:Work>
  </rdf:RDF>
 </metadata>
 <g id="layer1">
  <path id="Symbol" style="fill:#bebebe" d="m1.5 0c-0.831 0-1.5 0.669-1.5 1.5v9c0 0.831 0.669 1.5 1.5 1.5h4.5 2.5c0.831 0 1.5-0.669 1.5-1.5v-9c0-0.831-0.669-1.5-1.5-1.5zm1 2h5c0.277 0 0.5 0.223 0.5 0.5v7c0 0.277-0.223 0.5-0.5 0.5h-1.5-3.5c-0.277 0-0.5-0.223-0.5-0.5v-7c0-0.277 0.223-0.5 0.5-0.5zm8.5 3v1h3v-1zm0 2v2h3v-2zm0 3v3h-2l3.5 3 3.5-3h-2v-3z"/>
 </g>
</svg>

<?xml version="1.0" encoding="UTF-8" standalone="no"?>
<!-- Created with Inkscape (http://www.inkscape.org/) -->

<svg
   xmlns:dc="http://purl.org/dc/elements/1.1/"
   xmlns:cc="http://creativecommons.org/ns#"
   xmlns:rdf="http://www.w3.org/1999/02/22-rdf-syntax-ns#"
   xmlns:svg="http://www.w3.org/2000/svg"
   xmlns="http://www.w3.org/2000/svg"
   xmlns:sodipodi="http://sodipodi.sourceforge.net/DTD/sodipodi-0.dtd"
   xmlns:inkscape="http://www.inkscape.org/namespaces/inkscape"
   width="16"
   height="16"
   id="svg2"
   sodipodi:version="0.32"
   inkscape:version="0.48.1 r9760"
   version="1.0"
   sodipodi:docname="document-save-symbolic.svg"
   inkscape:output_extension="org.inkscape.output.svg.inkscape"
   inkscape:export-filename="/home/matt/.icons/Sirocco/scalable/mimetypes/text-plain.png"
   inkscape:export-xdpi="90"
   inkscape:export-ydpi="90"
   sodipodi:modified="true"
   style="display:inline">
  <sodipodi:namedview
     id="base"
     pagecolor="#ffffff"
     bordercolor="#666666"
     borderopacity="1.0"
     inkscape:pageopacity="0.0"
     inkscape:pageshadow="2"
     inkscape:zoom="16.540628"
     inkscape:cx="-27.302885"
     inkscape:cy="8.5068675"
     inkscape:document-units="px"
     inkscape:current-layer="layer1"
     width="128px"
     height="128px"
     inkscape:showpageshadow="false"
     inkscape:window-width="1920"
     inkscape:window-height="1028"
     inkscape:window-x="0"
     inkscape:window-y="25"
     showguides="true"
     inkscape:guide-bbox="true"
     showgrid="true"
     inkscape:window-maximized="1">
    <sodipodi:guide
       id="guide2226"
       position="32.637397,117.99844"
       orientation="horizontal" />
    <sodipodi:guide
       id="guide2230"
       position="110,57.402344"
       orientation="vertical" />
    <sodipodi:guide
       id="guide2232"
       position="33.760911"
       orientation="horizontal" />
    <sodipodi:guide
       id="guide2231"
       position="46.774696"
       orientation="horizontal" />
    <inkscape:grid
       enabled="true"
       visible="true"
       id="grid3231"
       type="xygrid" />
    <sodipodi:guide
       orientation="1,0"
       position="100,67.625"
       id="guide2713" />
  </sodipodi:namedview>
  <defs
     id="defs4" />
  <metadata
     id="metadata7">
    <rdf:RDF>
      <cc:Work
         rdf:about="">
        <dc:format>image/svg+xml</dc:format>
        <dc:type
           rdf:resource="http://purl.org/dc/dcmitype/StillImage" />
      </cc:Work>
    </rdf:RDF>
  </metadata>
  <g
     style="display:inline"
     inkscape:label="Calque 1"
     id="layer1"
     inkscape:groupmode="layer">
    <path
       style="fill:#bebebe;fill-opacity:1;stroke:none;display:inline"
       d="M 1.5,0 C 0.669,0 0,0.669 0,1.5 l 0,9 C 0,11.331 0.669,12 1.5,12 L 6,12 8.5,12 C 9.331,12 10,11.331 10,10.5 l 0,-9 C 10,0.669 9.331,0 8.5,0 z m 1,2 5,0 C 7.777,2 8,2.223 8,2.5 l 0,7 C 8,9.777 7.777,10 7.5,10 L 6,10 2.5,10 C 2.223,10 2,9.777 2,9.5 l 0,-7 C 2,2.223 2.223,2 2.5,2 z m 8.5,3 0,1 3,0 0,-1 z m 0,2 0,2 3,0 0,-2 z m 0,3 0,3 -2,0 3.5,3 3.5,-3 -2,0 0,-3 z"
       id="Symbol"
       sodipodi:nodetypes="cccccccccccccccccccccccccccccccccccccc"
       inkscape:connector-curvature="0" />
  </g>
</svg>
